public/img/svg/flags/ncl.svg

<?xml version="1.0" encoding="UTF-8" standalone="no"?>
<svg xmlns="http://www.w3.org/2000/svg" xmlns:xlink="http://www.w3.org/1999/xlink" width="900" height="450">
<title>Flag of New Caledonia</title>
<rect fill="#009543" width="900" height="450"/>
<rect fill="#ed4135" width="900" height="300"/>
<rect fill="#0035ad" width="900" height="150"/>
<circle stroke="#000" stroke-width="5" fill="#fae600" cx="300" cy="225" r="147.48"/>
<path stroke="#000" stroke-width="6" d="M275,247h50 M275,210h50 M300,78V330"/>
<path d="M240.62,360.419
	C300.811,384.999,357.228,361.929,357.228,361.929
	C357.228,361.929,335.931,338.881,325.014,329.882
	C314.361,321.104,283.023,321.451,272.329,329.882
	C263.405,336.92,237.809,362.852,240.62,360.419Z"/>
<ellipse cx="300" cy="293" rx="16.5" ry="24"/>
<ellipse cx="300" cy="228.5" rx="20" ry="12.66"/>
<ellipse cx="300" cy="170" rx="20" ry="20"/>
<path d="M324,95.5
	C323.994,95.4866,325.733,98.3708,322.087,104.936
	C304.661,136.319,287.174,136.997,283.855,139.7
	C280.197,142.678,278.653,142.474,278.653,142.474
	C278.914,139.786,279.157,128.795,279.348,127.736
	C281.993,113.073,304.144,113.275,321.48,98.2605
	C324.188,95.915,323.994,95.4866,323.994,95.4866Z"/>
<g id="leaf">
	<path d="m 265.5,163
		c0,0 3.91436,11.22974 4.5,22.5
		c0.93516,17.99657 18.18031,18.5 30,18.5
		l0,-10
		c-8.85851,0 -16.55267,-1.31658 -23,-14.5
		c-3.18045,-6.50336 -11.5,-16.5 -11.5,-16.5z"/>
	<path d="m 265,308
		c0,0 6.29638,-7.76543 13.6619,-25.97461
		C282.5048,272.5249 291.6115,267 300,267
		l0,-14
		c-19.02757,0 -28.1503,7.0552 -29.11281,17.36332
		C268.90975,291.54089 265,308 265,308z"/>
</g>
<use xlink:href="#leaf" transform="translate(600,0)scale(-1,1)"/>
</svg>

<svg xmlns="http://www.w3.org/2000/svg" xmlns:xlink="http://www.w3.org/1999/xlink" width="900" height="450"><path fill="#009543" d="M0 0h900v450H0z"/><path fill="#ed4135" d="M0 0h900v300H0z"/><path fill="#0035ad" d="M0 0h900v150H0z"/><circle stroke="#000" stroke-width="5" fill="#fae600" cx="300" cy="225" r="147.48"/><path stroke="#000" stroke-width="6" d="M275 247h50m-50-37h50M300 78v252"/><path d="M240.62 360.419c60.191 24.58 116.608 1.51 116.608 1.51s-21.297-23.048-32.214-32.047c-10.653-8.778-41.991-8.431-52.685 0-8.924 7.038-34.52 32.97-31.709 30.537z"/><ellipse cx="300" cy="293" rx="16.5" ry="24"/><ellipse cx="300" cy="228.5" rx="20" ry="12.66"/><circle cx="300" cy="170" r="20"/><path d="M324 95.5c-.006-.013 1.733 2.87-1.913 9.436-17.426 31.383-34.913 32.061-38.232 34.764-3.658 2.978-5.202 2.774-5.202 2.774.261-2.688.504-13.679.695-14.738 2.645-14.663 24.796-14.461 42.132-29.476 2.708-2.345 2.514-2.773 2.514-2.773z"/><g id="a"><path d="M265.5 163s3.914 11.23 4.5 22.5c.935 17.997 18.18 18.5 30 18.5v-10c-8.859 0-16.553-1.317-23-14.5-3.18-6.503-11.5-16.5-11.5-16.5zM265 308s6.296-7.765 13.662-25.975C282.505 272.525 291.612 267 300 267v-14c-19.028 0-28.15 7.055-29.113 17.363C268.91 291.541 265 308 265 308z"/></g><use xlink:href="#a" transform="matrix(-1 0 0 1 600 0)"/></svg>
